X:143
M:C |
L:1/8
K:F
a2 fd g2 e^c | d2 BG AF D2 | f2 dB c2 Ac | B2 GE F4 | a2 fd g2 e^c | d2 BG AF D2 |
(f/g/a) (g/a/b) {f}e3d | d(B/c/d)B c(A/B/c)A | g(e/f/g)e {d}^c4 | a(f/g/a)f g(e/f/g)e | fdA^c d4 :|

